symbols/web/reorder/materialsymbolsrounded/reorder_wght200gradN25_40px.svg

<svg xmlns="http://www.w3.org/2000/svg" height="40" width="40"><path d="M6.625 24.042q-.292 0-.5-.188-.208-.187-.208-.521 0-.25.208-.437.208-.188.5-.188h26.792q.291 0 .479.209.187.208.187.458 0 .292-.187.479-.188.188-.479.188Zm0 6.708q-.292 0-.5-.188-.208-.187-.208-.52 0-.25.208-.438.208-.187.5-.187h26.792q.291 0 .479.187.187.188.187.479 0 .292-.187.479-.188.188-.479.188Zm0-13.417q-.292 0-.5-.208-.208-.208-.208-.5 0-.292.208-.479.208-.188.5-.188h26.792q.291 0 .479.209.187.208.187.458 0 .292-.187.5-.188.208-.479.208Zm0-6.75q-.292 0-.5-.187-.208-.188-.208-.479 0-.292.208-.479.208-.188.5-.188h26.792q.291 0 .479.188.187.187.187.479 0 .291-.187.479-.188.187-.479.187Z"/></svg>

<svg xmlns="http://www.w3.org/2000/svg" height="40" width="40"><path d="M6.625 24.042Q6.333 24.042 6.125 23.854Q5.917 23.667 5.917 23.333Q5.917 23.083 6.125 22.896Q6.333 22.708 6.625 22.708H33.417Q33.708 22.708 33.896 22.917Q34.083 23.125 34.083 23.375Q34.083 23.667 33.896 23.854Q33.708 24.042 33.417 24.042ZM6.625 30.75Q6.333 30.75 6.125 30.562Q5.917 30.375 5.917 30.042Q5.917 29.792 6.125 29.604Q6.333 29.417 6.625 29.417H33.417Q33.708 29.417 33.896 29.604Q34.083 29.792 34.083 30.083Q34.083 30.375 33.896 30.562Q33.708 30.75 33.417 30.75ZM6.625 17.333Q6.333 17.333 6.125 17.125Q5.917 16.917 5.917 16.625Q5.917 16.333 6.125 16.146Q6.333 15.958 6.625 15.958H33.417Q33.708 15.958 33.896 16.167Q34.083 16.375 34.083 16.625Q34.083 16.917 33.896 17.125Q33.708 17.333 33.417 17.333ZM6.625 10.583Q6.333 10.583 6.125 10.396Q5.917 10.208 5.917 9.917Q5.917 9.625 6.125 9.438Q6.333 9.25 6.625 9.25H33.417Q33.708 9.25 33.896 9.438Q34.083 9.625 34.083 9.917Q34.083 10.208 33.896 10.396Q33.708 10.583 33.417 10.583Z"/></svg>
